X:79
T:Golden Eagle, The
R:hornpipe
D:Sean Keane: Jig It in Style
Z:id:hn-hornpipe-79
M:C|
K:G             
BA|GB,DG BDGB|dGBd gbag|fedB cAFA|GBAG (3FED (3cBA|
GB,DG BDGB|dGBd gbag|fedB cAFA|(3GAG FA G2:|
|:(3bbb|bB^df bagf|e^def e2(3ef^g|aA^ce agfe|(3ded ^ce d2ab|
c'afd ^cdef|gfga bgag|fedB cAFA|(3GAG FA G2:|
